img/svg/net/msie-mobile.svg

<?xml version="1.0" encoding="iso-8859-1"?>
<!-- Generator: Adobe Illustrator 21.0.2, SVG Export Plug-In . SVG Version: 6.00 Build 0)  -->
<svg version="1.1" id="&#x56FE;&#x5C42;_1" xmlns="http://www.w3.org/2000/svg" xmlns:xlink="http://www.w3.org/1999/xlink" x="0px"
	 y="0px" viewBox="0 0 16 16" style="enable-background:new 0 0 16 16;" xml:space="preserve">
<g>
	<path d="M8.556,5.728c-1.1,0-1.995,0.823-2.031,1.852h4.061C10.551,6.551,9.656,5.728,8.556,5.728z"/>
	<path d="M4.261,9.707c-0.695,1.435-0.64,2.222-0.325,2.545c0.636,0.652,1.831,0.094,2.281-0.154
		C5.313,11.561,4.612,10.716,4.261,9.707z"/>
	<path d="M12.16,3.808c-0.585-0.395-1.614,0.03-2.03,0.231c0.914,0.354,1.683,0.999,2.195,1.822
		C12.858,4.479,12.547,4.069,12.16,3.808z"/>
	<path d="M1,1v14h14V1H1z M12.963,8.809H6.536c0,1.058,0.918,1.916,2.05,1.916c0.773,0,1.445-0.4,1.795-0.99h2.361
		c-0.619,1.742-2.281,2.989-4.235,2.989c-0.714,0-1.388-0.167-1.988-0.463c-0.557,0.288-4.545,2.217-3.267-2.352
		c0.008-0.03,0.206-0.543,0.61-1.276c0.077-0.14,0.163-0.289,0.255-0.443C4.118,8.188,4.119,8.186,4.12,8.184
		C4.155,8.127,4.19,8.069,4.227,8.01C4.229,8.007,4.231,8.004,4.233,8c0.036-0.059,0.074-0.118,0.112-0.178l0.001-0.002
		c0.146-0.228,0.309-0.466,0.486-0.708c0.02-0.027,0.039-0.053,0.059-0.08c0.028-0.038,0.057-0.075,0.086-0.113
		c0.025-0.033,0.051-0.067,0.077-0.1c0.027-0.035,0.055-0.07,0.083-0.106c0.029-0.036,0.058-0.073,0.087-0.109
		c0.027-0.034,0.055-0.067,0.083-0.101C5.338,6.465,5.37,6.427,5.402,6.389C5.43,6.356,5.458,6.324,5.486,6.291
		C5.52,6.252,5.555,6.213,5.59,6.173C5.618,6.142,5.646,6.11,5.674,6.079c0.037-0.041,0.074-0.081,0.112-0.121
		c0.028-0.03,0.056-0.06,0.085-0.09c0.04-0.042,0.082-0.084,0.123-0.126c0.027-0.028,0.054-0.056,0.082-0.083
		C6.123,5.611,6.17,5.565,6.218,5.519C6.242,5.496,6.265,5.473,6.289,5.45c0.072-0.069,0.146-0.137,0.221-0.204
		C6.039,5.45,5.251,5.96,4.126,7.222c0.457-1.997,2.245-3.486,4.38-3.486c0.086,0,0.17,0.003,0.255,0.007
		c0.572-0.267,1.192-0.478,1.863-0.609C10.8,3.1,13.965,2.594,12.437,6.052C12.795,6.697,13,7.44,13,8.23h0
		C13,8.426,12.987,8.619,12.963,8.809z"/>
</g>
</svg>

<svg xmlns="http://www.w3.org/2000/svg" viewBox="0 0 16 16"><title>msie-mobile</title><path d="M8.56,5.73a2,2,0,0,0-2,1.85h4.06A2,2,0,0,0,8.56,5.73Z"/><path d="M4.26,9.71c-.7,1.43-.64,2.22-.32,2.55.64.65,1.83.09,2.28-.15A4.51,4.51,0,0,1,4.26,9.71Z"/><path d="M12.16,3.81c-.58-.39-1.61,0-2,.23a4.51,4.51,0,0,1,2.19,1.82C12.86,4.48,12.55,4.07,12.16,3.81Z"/><path d="M1,1V15H15V1ZM13,8.81H6.54a2,2,0,0,0,2,1.92,2.08,2.08,0,0,0,1.79-1h2.36a4.5,4.5,0,0,1-6.22,2.53C6,12.55,2,14.48,3.25,9.91a10.08,10.08,0,0,1,.61-1.28l.26-.44h0L4.23,8h0l.11-.18h0c.15-.23.31-.47.49-.71L4.89,7,5,6.92l.08-.1.08-.11.09-.11.08-.1.1-.11.08-.1.1-.12.08-.09L5.79,6l.08-.09L6,5.74l.08-.08.14-.14.07-.07.22-.2a7.46,7.46,0,0,0-2.38,2A4.5,4.5,0,0,1,8.51,3.74h.25a8.05,8.05,0,0,1,1.86-.61c.18,0,3.34-.54,1.81,2.92A4.47,4.47,0,0,1,13,8.23h0A4.54,4.54,0,0,1,13,8.81Z"/></svg>
